!!!!SEGMENT: pl-cz--iii-257--004_gotschalk-filip-requiem-in-b-domine-jesu.krn
!!!id: 18xx:101
!!!COM: Gotschalk, Filip
!!!OTL: Requiem in B - Domine Jesu
!!!PDT:
!!!SMS-siglum: PL-CZ
!!!SMS-shelfmark: III-257
!!!NIFC-rismID:
!!!URL-scan: http://repozytorium.nifc.pl/skany/pl-cz-nut--iii-257
!!!ONB-nifc:
!!!ENC: Anna Matuszewska
!!!END: 2020-03-24
**kern	**fb	**dynam	**kern	**text	**kern	**text	**kern	**text	**kern	**text	**kern	**dynam	**kern	**dynam	**kern	**dynam	**kern	**dynam	**kern	**dynam	**kern
*part11	*	*part11	*part10	*part10	*part9	*part9	*part8	*part8	*part7	*part7	*part6	*part6	*part5	*part5	*part4	*part4	*part3	*part3	*part2	*part2	*part1
*staff11	*	*	*staff10	*staff10	*staff9	*staff9	*staff8	*staff8	*staff7	*staff7	*staff6	*	*staff5	*	*staff4	*	*staff3	*	*staff2	*	*staff1
*I"Organo	*	*	*I"Basso	*	*I"Tenore	*	*I"Alto	*	*I"Canto	*	*I"Violino Secondo	*	*I"Violino Primo	*	*I"Cornu Secondo in B	*	*I"Cornu Primo in B	*	*I"Clarinetto Secondo	*	*I"Clarinetto Primo
*I'Org	*	*	*I'B	*	*I'T	*	*I'A	*	*I'C	*	*I'Vn II	*	*I'Vn I	*	*I'Cor II	*	*I'Cor I	*	*I'Cl II	*	*I'Cl I
*clefF4	*	*	*clefF4	*	*clefC4	*	*clefC3	*	*clefC1	*	*clefG2	*	*clefG2	*	*clefG2	*	*clefG2	*	*clefG2	*	*clefG2
*	*	*	*	*	*	*	*	*	*	*	*	*	*	*	*ITrd1c2	*	*ITrd1c2	*	*	*	*
*k[b-e-]	*	*	*k[b-e-]	*	*k[b-e-]	*	*k[b-e-]	*	*k[b-e-]	*	*k[b-e-]	*	*k[b-e-]	*	*k[b-e-]	*	*k[b-e-]	*	*k[b-e-]	*	*k[b-e-]
*B-:	*	*	*B-:	*	*B-:	*	*B-:	*	*B-:	*	*B-:	*	*B-:	*	*	*	*	*	*B-:	*	*B-:
*M3/4	*	*	*M3/4	*	*M3/4	*	*M3/4	*	*M3/4	*	*M3/4	*	*M3/4	*	*M3/4	*	*M3/4	*	*M3/4	*	*M3/4
=1	=1	=1	=1	=1	=1	=1	=1	=1	=1	=1	=1	=1	=1	=1	=1	=1	=1	=1	=1	=1	=1
!	!	!	!	!	!	!	!LO:TX:a:t=Andante	!	!	!	!	!	!	!	!	!	!	!	!	!	!
!LO:TX:a:t=Andante	!	!	!LO:TX:a:t=Andante	!	!	!	!LO:TX:a:t=solo	!	!LO:TX:a:t=Andante	!	!LO:TX:a:t=Andante	!	!LO:TX:a:t=Andante	!	!LO:TX:a:t=Andante	!	!LO:TX:a:t=Andante	!	!LO:TX:a:t=Andante	!	!LO:TX:a:B:t=Andante
4B-	.	p	4B-	Do-	4B-	Do-	4.dd	Do-	4.ff	Do-	4.dd	p	4.ff	p	2.r	p	2.r	.	4.dd	p	4.ff
4F	.	.	4F	-mi-	4B-	-mi-	.	.	.	.	.	.	.	.	.	.	.	.	.	.	.
.	.	.	.	.	.	.	8cc	-mi-	8ee-	-mi-	8cc	.	8ee-	.	.	.	.	.	8cc	.	8ee-
4B-	.	.	4B-	-ne	4B-	-ne	4b-	-ne	4dd	-ne	4b-	.	4dd	.	.	.	.	.	4b-	.	4dd
=2	=2	=2	=2	=2	=2	=2	=2	=2	=2	=2	=2	=2	=2	=2	=2	=2	=2	=2	=2	=2	=2
4B-	.	.	4B-	Do-	4B-	Do-	4.f	Do-	4.dd	Do-	4.f	.	4dd	.	4r	.	4r	.	4.f	.	4.dd
4F	5 7	.	4F	-mi-	4B-	-mi-	.	.	.	.	.	.	(>16ffLL	.	4r	.	4r	.	.	.	.
.	.	.	.	.	.	.	.	.	.	.	.	.	16ee-	.	.	.	.	.	.	.	.
.	.	.	.	.	.	.	8e-	-mi-	8cc	-mi-	8e-	.	16dd	.	.	.	.	.	8e-	.	8cc
.	.	.	.	.	.	.	.	.	.	.	.	.	16ccJJ)	.	.	.	.	.	.	.	.
.	.	.	.	.	.	.	.	.	.	.	.	.	8qqcc/	.	.	.	.	.	.	.	.
4B-	.	.	4B-	-ne	4B-	-ne	4d	-ne	4b-	-ne	4d	.	4b-	.	4d	.	4b-	p	4d	.	4b-
=3	=3	=3	=3	=3	=3	=3	=3	=3	=3	=3	=3	=3	=3	=3	=3	=3	=3	=3	=3	=3	=3
*	*	*	*2\right	*	*2\right	*	*	*	*	*	*	*	*	*	*	*	*	*	*	*	*
4F	5 3	.	2F	Je-	2f	Je-	(>4a	Je-	(>4cc	Je-	8aL	.	(>16ccLL\	.	4f	.	4cc	.	4a\	.	4cc
.	.	.	.	.	.	.	.	.	.	.	.	.	16a	.	.	.	.	.	.	.	.
.	.	.	.	.	.	.	.	.	.	.	8a	.	16f	.	.	.	.	.	.	.	.
.	.	.	.	.	.	.	.	.	.	.	.	.	16ccJJ)	.	.	.	.	.	.	.	.
4F	6 4	.	.	.	.	.	4b-)	.	4dd)	.	8b-	.	(>16ddLL\	.	4b-	.	4dd	.	4b-	.	4dd
.	.	.	.	.	.	.	.	.	.	.	.	.	16b-	.	.	.	.	.	.	.	.
.	.	.	.	.	.	.	.	.	.	.	8b-	.	16f	.	.	.	.	.	.	.	.
.	.	.	.	.	.	.	.	.	.	.	.	.	16ddJJ)	.	.	.	.	.	.	.	.
4F	7 5	.	4F	-su	4f	-su	4cc	-su	4ee-	-su	8cc	.	(>16ee-LL	.	4cc	.	4ee-	.	4cc	.	4ee-
.	.	.	.	.	.	.	.	.	.	.	.	.	16cc	.	.	.	.	.	.	.	.
.	.	.	.	.	.	.	.	.	.	.	8ccJ	.	16f	.	.	.	.	.	.	.	.
.	.	.	.	.	.	.	.	.	.	.	.	.	16ee-JJ)	.	.	.	.	.	.	.	.
!	!	!	!	!	!	!	!LO:LB:g=original	!	!	!	!	!	!	!	!	!	!	!	!	!	!
=4	=4	=4	=4	=4	=4	=4	=4	=4	=4	=4	=4	=4	=4	=4	=4	=4	=4	=4	=4	=4	=4
.	.	.	.	.	.	.	.	.	8qqff/	.	.	.	.	.	.	.	.	.	8qqdd/	.	8qqff/
8FL	8 7 5	.	4F	Chris-	4f	Chris-	4cc	Chris-	4ee-	Chris-	4cc	.	16ffLL	.	4cc	.	4ee-	.	4cc	.	4ee-
.	.	.	.	.	.	.	.	.	.	.	.	.	16ee-	.	.	.	.	.	.	.	.
16GL	.	.	.	.	.	.	.	.	.	.	.	.	16dd	.	.	.	.	.	.	.	.
16AJJ	.	.	.	.	.	.	.	.	.	.	.	.	16ee-JJ	.	.	.	.	.	.	.	.
8B-L	.	.	4BB-	-te	4f	-te	4b-	-te	4dd	-te	4b-	.	4dd	.	4b-	.	4dd	.	4b-	.	4dd
8B-	.	.	.	.	.	.	.	.	.	.	.	.	.	.	.	.	.	.	.	.	.
8F	.	.	4r	.	4r	.	4r	.	4r	.	16b-LL	.	16ddLL	.	4r	.	4r	.	4r	.	4r
.	.	.	.	.	.	.	.	.	.	.	16b-	.	16dd	.	.	.	.	.	.	.	.
8DJ	.	.	.	.	.	.	.	.	.	.	16cc	.	16ee-	.	.	.	.	.	.	.	.
.	.	.	.	.	.	.	.	.	.	.	16ddJJ	.	16ffJJ	.	.	.	.	.	.	.	.
!	!	!	!	!	!LO:LB:g=original	!	!	!	!LO:LB:g=original	!	!LO:LB:g=original	!	!LO:LB:g=original	!	!	!	!	!	!	!	!
=5	=5	=5	=5	=5	=5	=5	=5	=5	=5	=5	=5	=5	=5	=5	=5	=5	=5	=5	=5	=5	=5
*	*	*	*	*	*	*	*	*	*	*	*tremolo	*	*	*	*	*	*	*	*	*	*
*	*	*	*	*	*	*	*2\right	*	*2\right	*	*2\right	*	*2\right	*	*	*	*	*	*2\right	*	*2\right
4E-	.	.	4E-	Rex	2.e-	Rex	2.b-	Rex	2.gg	Rex	8b-L	.	2gg	.	2.r	.	2.r	.	2.ee-	.	2.gg
.	.	.	.	.	.	.	.	.	.	.	8b-	.	.	.	.	.	.	.	.	.	.
8E-L	.	.	8E-L	.	.	.	.	.	.	.	8b-	.	.	.	.	.	.	.	.	.	.
8F	.	.	8F	.	.	.	.	.	.	.	8b-	.	.	.	.	.	.	.	.	.	.
8G	.	.	8G	.	.	.	.	.	.	.	8b-	.	8bb-L	.	.	.	.	.	.	.	.
8AJ	.	.	8AJ	.	.	.	.	.	.	.	8b-J	.	16aaL	.	.	.	.	.	.	.	.
.	.	.	.	.	.	.	.	.	.	.	.	.	16ggJJ	.	.	.	.	.	.	.	.
!LO:LB:g=original	!	!	!LO:LB:g=original	!	!	!	!	!	!	!	!	!	!	!	!	!	!	!	!	!	!LO:LB:g=original
=6	=6	=6	=6	=6	=6	=6	=6	=6	=6	=6	=6	=6	=6	=6	=6	=6	=6	=6	=6	=6	=6l
4B-	.	.	4B-	Glo-	4d	glo-	4b-	glo-	4.ff	Glo-	4dd	.	4ff	.	4r	.	4r	.	4.dd	.	4.ff
4F	.	.	4F	-ri-	4c	-ri-	4b-	-ri-	.	.	(>16ddLL	.	(>16ffLL	.	4r	.	4r	.	.	.	.
.	.	.	.	.	.	.	.	.	.	.	16cc	.	16ee-	.	.	.	.	.	.	.	.
.	.	.	.	.	.	.	.	.	8ee-	-ri-	16b-	.	16dd	.	.	.	.	.	8cc	.	8ee-
.	.	.	.	.	.	.	.	.	.	.	16ccJJ)	.	16ee-JJ)	.	.	.	.	.	.	.	.
4G	5	.	4G	-ae	4B-	-ae	4b-	-ae	4dd	-ae	4b-	.	4dd	.	4b-	.	4dd	.	4b-	.	4dd
!	!	!	!	!	!	!	!	!	!	!	!	!	!	!	!LO:LB:g=original	!	!LO:LB:g=original	!	!	!	!
=7	=7	=7	=7	=7	=7	=7	=7	=7	=7	=7	=7	=7	=7	=7	=7	=7	=7	=7	=7	=7	=7
4E-	.	.	4E-	Rex	4e-	rex	4g	rex	4cc	rex	(<8e-L	.	8ccL	.	4f	.	4cc	.	4g	.	4cc
.	.	.	.	.	.	.	.	.	.	.	8f	.	24ee-L	.	.	.	.	.	.	.	.
.	.	.	.	.	.	.	.	.	.	.	.	.	24dd	.	.	.	.	.	.	.	.
.	.	.	.	.	.	.	.	.	.	.	.	.	24ccJJ	.	.	.	.	.	.	.	.
4F	.	.	4F	glo-	4d	glo-	4f	glo-	4b-	glo-	8d	.	8b-L	.	4d	.	4b-	.	4f	.	4b-
.	.	.	.	.	.	.	.	.	.	.	8f	.	24ddL	.	.	.	.	.	.	.	.
.	.	.	.	.	.	.	.	.	.	.	.	.	24cc	.	.	.	.	.	.	.	.
.	.	.	.	.	.	.	.	.	.	.	.	.	24b-JJ	.	.	.	.	.	.	.	.
4F	.	.	4F	-ri-	4c	-ri-	4f	-ri-	4a	-ri-	8c	.	8aL\	.	4f	.	4cc	.	4e-	.	4a
.	.	.	.	.	.	.	.	.	.	.	8e-J)	.	24ccL	.	.	.	.	.	.	.	.
.	.	.	.	.	.	.	.	.	.	.	.	.	24b-	.	.	.	.	.	.	.	.
.	.	.	.	.	.	.	.	.	.	.	.	.	24aJJ	.	.	.	.	.	.	.	.
!	!	!	!	!	!	!	!	!	!	!	!	!	!	!	!	!	!	!	!LO:LB:g=original	!	!
=8	=8	=8	=8	=8	=8	=8	=8	=8	=8	=8	=8	=8	=8	=8	=8	=8	=8	=8	=8	=8	=8
4B-	.	.	2BB-	-ae	2d	-ae	2f	-ae.	2b-	-ae	8dL 8b-	.	(<16b-LL	.	4d	.	4b-	.	2d	.	2b-
.	.	.	.	.	.	.	.	.	.	.	.	.	16f	.	.	.	.	.	.	.	.
.	.	.	.	.	.	.	.	.	.	.	8d 8b-	.	16d	.	.	.	.	.	.	.	.
.	.	.	.	.	.	.	.	.	.	.	.	.	16fJJ)	.	.	.	.	.	.	.	.
8B-L	.	.	.	.	.	.	.	.	.	.	8d 8b-	.	(>16b-LL	.	8dL	.	8b-L	.	.	.	.
.	.	.	.	.	.	.	.	.	.	.	.	.	16dd	.	.	.	.	.	.	.	.
8f	.	.	.	.	.	.	.	.	.	.	8d 8b-	.	16ff	.	8fJ	.	8ddJ	.	.	.	.
.	.	.	.	.	.	.	.	.	.	.	.	.	16bb-JJ)	.	.	.	.	.	.	.	.
.	.	.	.	.	.	.	.	.	.	.	.	.	8qff/	.	.	.	.	.	.	.	.
8d	.	.	4r	.	4r	.	4r	.	4r	.	8d 8b-	.	(>16ffLL	.	4d	.	4b-	.	4r	.	4r
.	.	.	.	.	.	.	.	.	.	.	.	.	16dd	.	.	.	.	.	.	.	.
8B-J	.	.	.	.	.	.	.	.	.	.	8dJ 8b-	.	16cc	.	.	.	.	.	.	.	.
.	.	.	.	.	.	.	.	.	.	.	.	.	16b-JJ)	.	.	.	.	.	.	.	.
!	!	!	!	!	!	!	!	!	!	!	!	!	!LO:LB:g=original	!	!	!	!	!	!	!	!
=9	=9	=9	=9	=9	=9	=9	=9	=9	=9	=9	=9	=9	=9	=9	=9	=9	=9	=9	=9	=9	=9
!LO:TX:a:t=Tutti	!	!	!	!	!	!	!	!	!	!	!	!	!	!	!	!	!	!	!	!	!
8FL\	5 3	.	4F	li-	4f	li-	4a	li-	4cc	li-	8fL 8a	f	(>16aLL	.	4r	.	4r	.	2.r	.	2.r
.	.	.	.	.	.	.	.	.	.	.	.	.	16cc	.	.	.	.	.	.	.	.
8CJ/	.	.	.	.	.	.	.	.	.	.	8f 8a	.	16ff	.	.	.	.	.	.	.	.
.	.	.	.	.	.	.	.	.	.	.	.	.	16ccJJ)	.	.	.	.	.	.	.	.
8FL\	5_ 3_	.	4F	-be-	4f	-be-	4a	-be-	4cc	-be-	8f 8a	.	(>16aaLL	.	4f	.	4cc	.	.	.	.
.	.	.	.	.	.	.	.	.	.	.	.	.	16ff	.	.	.	.	.	.	.	.
8CJ/	.	.	.	.	.	.	.	.	.	.	8f 8a	.	16ccc	.	.	.	.	.	.	.	.
.	.	.	.	.	.	.	.	.	.	.	.	.	16aaJJ)	.	.	.	.	.	.	.	.
8FL\	x	.	4F	-ra	4f	-ra	4a	-ra	4cc	-ra	8f 8a	.	4ff	.	4f	.	4cc	.	.	.	.
8CJ/	.	.	.	.	.	.	.	.	.	.	8fJ 8a	.	.	.	.	.	.	.	.	.	.
!	!	!	!	!	!	!	!LO:LB:g=original	!	!	!	!	!	!	!	!	!	!	!	!	!	!
=10	=10	=10	=10	=10	=10	=10	=10	=10	=10	=10	=10	=10	=10	=10	=10	=10	=10	=10	=10	=10	=10
*	*	*	*	*	*	*	*	*	*	*	*	*	*	*	*	*	*2\right	*	*	*	*
8FL	5_ 3_	.	4.F	a-	4.f	a-	4.a	a-	4.cc	a-	8fL 8a	.	(>16ffLL	.	2f	.	2cc	.	2.r	.	2.r
.	.	.	.	.	.	.	.	.	.	.	.	.	16cc	.	.	.	.	.	.	.	.
8C	.	.	.	.	.	.	.	.	.	.	8f 8a	.	16a	.	.	.	.	.	.	.	.
.	.	.	.	.	.	.	.	.	.	.	.	.	16ccJJ)	.	.	.	.	.	.	.	.
8F	.	.	.	.	.	.	.	.	.	.	8f 8a	.	16ffLL	.	.	.	.	.	.	.	.
.	x	.	.	.	.	.	.	.	.	.	.	.	16aa	.	.	.	.	.	.	.	.
8C	.	.	8F	-ni-	8f	-ni-	8a	-ni-	8cc	-ni-	8f 8a	.	16ccc	.	.	.	.	.	.	.	.
.	.	.	.	.	.	.	.	.	.	.	.	.	16aaJJ	.	.	.	.	.	.	.	.
8A	.	.	4F	-mas	4f	-mas	4a	-mas	4cc	-mas	8f 8a	.	4ff	.	4f	.	4cc	.	.	.	.
8FJ	.	.	.	.	.	.	.	.	.	.	8fJ 8a	.	.	.	.	.	.	.	.	.	.
!LO:LB:g=original	!	!	!	!	!LO:LB:g=original	!	!	!	!LO:LB:g=original	!	!	!	!	!	!	!	!	!	!	!	!
=11	=11	=11	=11	=11	=11	=11	=11	=11	=11	=11	=11	=11	=11	=11	=11	=11	=11	=11	=11	=11	=11
8EnL	6_ 5_	.	4G	li-	4en	li-	4b-	li-	4cc	li-	8gL 8b-	.	(>16ccLL	.	2.r	.	2.r	.	4g	.	4een
.	.	.	.	.	.	.	.	.	.	.	.	.	16bn	.	.	.	.	.	.	.	.
8C	.	.	.	.	.	.	.	.	.	.	8g 8b-	.	16cc	.	.	.	.	.	.	.	.
.	.	.	.	.	.	.	.	.	.	.	.	.	16ddJJ)	.	.	.	.	.	.	.	.
8E	.	.	4G	-be-	4e	-be-	4b-	-be-	4cc	-be-	8g 8b-	.	(>16eenLL	.	.	.	.	.	4g	.	4ee
.	.	.	.	.	.	.	.	.	.	.	.	.	16gg	.	.	.	.	.	.	.	.
8C	x	.	.	.	.	.	.	.	.	.	8g 8b-	.	16bb-	.	.	.	.	.	.	.	.
.	.	.	.	.	.	.	.	.	.	.	.	.	16ggJJ)	.	.	.	.	.	.	.	.
8G	.	.	4G	-ra	4e	-ra	4b-	-ra	4cc	-ra	8g 8b-	.	4ee	.	.	.	.	.	4g	.	4ee
8CJ	.	.	.	.	.	.	.	.	.	.	8gJ 8b-	.	.	.	.	.	.	.	.	.	.
!	!	!	!LO:LB:g=original	!	!	!	!	!	!	!	!	!	!	!	!	!	!	!	!	!	!
=12	=12	=12	=12	=12	=12	=12	=12	=12	=12	=12	=12	=12	=12	=12	=12	=12	=12	=12	=12	=12	=12
8EnL	6_ 5_	.	4.G	a-	4en	a-	4.b-	a-	4.cc	a-	8gL 8b-	.	(>16eenLL	.	2.r	.	2.r	.	4g	.	4.ee-
.	.	.	.	.	.	.	.	.	.	.	.	.	16dd	.	.	.	.	.	.	.	.
8C	.	.	.	.	.	.	.	.	.	.	8g 8b-	.	16cc	.	.	.	.	.	.	.	.
.	.	.	.	.	.	.	.	.	.	.	.	.	16ddJJ	.	.	.	.	.	.	.	.
8G	.	.	.	.	4e	-ni-	.	.	.	.	8g 8b-	.	16eeLL)	.	.	.	.	.	4g	.	.
.	x	.	.	.	.	.	.	.	.	.	.	.	16gg	.	.	.	.	.	.	.	.
8C	.	.	8G	-ni-	.	.	8b-	-ni-	8cc	-ni-	8g 8b-	.	16bb-	.	.	.	.	.	.	.	8ee-
.	.	.	.	.	.	.	.	.	.	.	.	.	16ggJJ	.	.	.	.	.	.	.	.
8B-	.	.	4G	-mas	4e	-mas	4b-	-mas	4cc	-mas	8g 8b-	.	4ee	.	.	.	.	.	4g	.	4ee-
8CJ	.	.	.	.	.	.	.	.	.	.	8gJ 8b-	.	.	.	.	.	.	.	.	.	.
*	*	*	*	*	*	*	*	*	*	*	*Xtremolo	*	*	*	*	*	*	*	*	*	*
!	!	!	!	!	!	!	!	!	!	!	!LO:LB:g=original	!	!LO:LB:g=original	!	!	!	!	!	!	!	!
=13	=13	=13	=13	=13	=13	=13	=13	=13	=13	=13	=13	=13	=13	=13	=13	=13	=13	=13	=13	=13	=13
4A	6	.	4A	om-	4c	om-	4a	om-	4.cc	om-	8aL	.	(>16ffLL	.	2.r	.	2.r	.	2.r	.	2.r
.	.	.	.	.	.	.	.	.	.	.	.	.	16cc	.	.	.	.	.	.	.	.
.	.	.	.	.	.	.	.	.	.	.	8aJ	.	16a	.	.	.	.	.	.	.	.
.	.	.	.	.	.	.	.	.	.	.	.	.	16ccJJ)	.	.	.	.	.	.	.	.
4G	6n	.	4G	-ni-	4B-	-ni-	4g	-ni-	.	.	8b-L/	.	(>16eenLL	.	.	.	.	.	.	.	.
.	.	.	.	.	.	.	.	.	.	.	.	.	16cc	.	.	.	.	.	.	.	.
.	.	.	.	.	.	.	.	.	16ddLL	-ni-	8b-J	.	16dd	.	.	.	.	.	.	.	.
.	.	.	.	.	.	.	.	.	16eenJJ	.	.	.	16eenJJ)	.	.	.	.	.	.	.	.
4F	.	.	4F	-um	4c	-um	4a	-um	4ff	-um	16aLL\	.	(>16ffLL	.	.	.	.	.	.	.	.
.	.	.	.	.	.	.	.	.	.	.	16b-	.	16gg	.	.	.	.	.	.	.	.
.	.	.	.	.	.	.	.	.	.	.	16cc	.	16aa	.	.	.	.	.	.	.	.
.	.	.	.	.	.	.	.	.	.	.	16aJJ	.	16ffJJ)	.	.	.	.	.	.	.	.
=14	=14	=14	=14	=14	=14	=14	=14	=14	=14	=14	=14	=14	=14	=14	=14	=14	=14	=14	=14	=14	=14
4B-	6	.	4B-	fi-	4G	fi-	4b-	fi-	8ddL	fi-	8b-L\	.	(>16ddLL	.	4r	.	4r	.	8r	.	8r
.	.	.	.	.	.	.	.	.	.	.	.	.	16b-	.	.	.	.	.	.	.	.
.	.	.	.	.	.	.	.	.	8ggJ	.	8b-	.	16dd	.	.	.	.	.	8b-/	.	8gg
.	.	.	.	.	.	.	.	.	.	.	.	.	16ggJJ)	.	.	.	.	.	.	.	.
4c	.	.	4c	-de-	4c	-de-	4a	-de-	4ff	-de-	8a	.	(>4ff	.	4f	.	4cc	.	4a	.	4ff
.	.	.	.	.	.	.	.	.	.	.	8cc	.	.	.	.	.	.	.	.	.	.
4C	.	.	4C	-li-	4c	-li-	4g	-li-	4een	-li-	8g	.	4een)	.	4f	.	4cc	.	4g	.	4een
.	.	.	.	.	.	.	.	.	.	.	8b-J	.	.	.	.	.	.	.	.	.	.
=15	=15	=15	=15	=15	=15	=15	=15	=15	=15	=15	=15	=15	=15	=15	=15	=15	=15	=15	=15	=15	=15
4F	.	.	2.F	-um	2.c	-um	2.a	-um	2.ff	-um.	4f 4a	.	(>16ffLL	.	4f	.	4cc	.	2a	.	2ff
.	.	.	.	.	.	.	.	.	.	.	.	.	16een	.	.	.	.	.	.	.	.
.	.	.	.	.	.	.	.	.	.	.	.	.	16ff	.	.	.	.	.	.	.	.
.	.	.	.	.	.	.	.	.	.	.	.	.	16ggJJ)	.	.	.	.	.	.	.	.
8A`L	.	.	.	.	.	.	.	.	.	.	(<8aL	.	(>8ffL	.	4r	.	4r	.	.	.	.
8G`	.	.	.	.	.	.	.	.	.	.	8g)	.	8ee)	.	.	.	.	.	.	.	.
8F`	.	.	.	.	.	.	.	.	.	.	(<8fn	.	(>8dd	.	4r	.	4r	.	4r	.	4r
8En`J	.	.	.	.	.	.	.	.	.	.	8enJ)	.	8cc#XJ)	.	.	.	.	.	.	.	.
!LO:LB:g=original	!	!	!	!	!	!	!LO:LB:g=original	!	!LO:LB:g=original	!	!	!	!	!	!LO:LB:g=original	!	!	!	!	!	!
=16	=16	=16	=16	=16	=16	=16	=16	=16	=16	=16	=16	=16	=16	=16	=16	=16	=16	=16	=16	=16	=16
4D	.	.	4D	de-	2A/	De-	(>4a	de-	(>4ff	de-	8aL	.	(>16ddLL	.	2.r	.	2.r	.	4a	.	(>4ff
.	.	.	.	.	.	.	.	.	.	.	.	.	16ff	.	.	.	.	.	.	.	.
.	.	.	.	.	.	.	.	.	.	.	8a	.	16een	.	.	.	.	.	.	.	.
.	.	.	.	.	.	.	.	.	.	.	.	.	16ffJJ)	.	.	.	.	.	.	.	.
4En	6|	.	4E-	.	.	.	4g)	.	4een)	.	8g	.	(>16ffLL	.	.	.	.	.	4g	.	4een
.	.	.	.	.	.	.	.	.	.	.	.	.	16ee	.	.	.	.	.	.	.	.
.	.	.	.	.	.	.	.	.	.	.	8g	.	16dd	.	.	.	.	.	.	.	.
.	.	.	.	.	.	.	.	.	.	.	.	.	16eeJJ)	.	.	.	.	.	.	.	.
4F	6	.	4F	-func-	4A/	-func-	4f	-func-	4dd	-func-	8a	.	(>16eeLL	.	.	.	.	.	4f	.	4dd)
.	.	.	.	.	.	.	.	.	.	.	.	.	16dd	.	.	.	.	.	.	.	.
.	.	.	.	.	.	.	.	.	.	.	8aJ	.	16cc#X	.	.	.	.	.	.	.	.
.	.	.	.	.	.	.	.	.	.	.	.	.	16ddJJ)	.	.	.	.	.	.	.	.
!	!	!	!	!	!LO:LB:g=original	!	!	!	!	!	!LO:LB:g=original	!	!LO:LB:g=original	!	!	!	!	!	!	!	!
=17	=17	=17	=17	=17	=17	=17	=17	=17	=17	=17	=17	=17	=17	=17	=17	=17	=17	=17	=17	=17	=17
*2\right	*	*	*	*	*	*	*	*	*	*	*tremolo	*	*	*	*	*	*	*	*	*	*
2G	4| 2	.	2G	-to-	2A/	-to-	2en	-to-	2cc#X	-to-	8b-L/	.	(>16cc#XLL	.	2.r	.	2.r	.	2a	.	2cc#X
.	.	.	.	.	.	.	.	.	.	.	.	.	16b-	.	.	.	.	.	.	.	.
.	.	.	.	.	.	.	.	.	.	.	8b-	.	16a	.	.	.	.	.	.	.	.
.	.	.	.	.	.	.	.	.	.	.	.	.	16b-JJ)	.	.	.	.	.	.	.	.
.	.	.	.	.	.	.	.	.	.	.	8b-	.	(>16cc#LL	.	.	.	.	.	.	.	.
.	.	.	.	.	.	.	.	.	.	.	.	.	16dd	.	.	.	.	.	.	.	.
.	.	.	.	.	.	.	.	.	.	.	8b-J	.	16ee-	.	.	.	.	.	.	.	.
.	.	.	.	.	.	.	.	.	.	.	.	.	16cc#JJ)	.	.	.	.	.	.	.	.
*	*	*	*	*	*	*	*	*	*	*	*Xtremolo	*	*	*	*	*	*	*	*	*	*
4F	6	.	4F	-rum	4A/	-rum	4f	-rum	4dd	-rum	8aL	.	(>16ddLL	.	.	.	.	.	4a	.	4dd
.	.	.	.	.	.	.	.	.	.	.	.	.	16ee-	.	.	.	.	.	.	.	.
.	.	.	.	.	.	.	.	.	.	.	8aJ	.	16ff	.	.	.	.	.	.	.	.
.	.	.	.	.	.	.	.	.	.	.	.	.	16ddJJ)	.	.	.	.	.	.	.	.
!	!	!	!LO:LB:g=original	!	!	!	!	!	!	!	!	!	!	!	!	!	!	!	!	!	!LO:LB:g=original
=18	=18	=18	=18	=18	=18	=18	=18	=18	=18	=18	=18	=18	=18	=18	=18	=18	=18	=18	=18	=18	=18
4G	6	.	2G	de-	2B-	de-	2g	de-	2een	de-	8b-L/	.	(>16eenLL	.	2.r	.	2.r	.	2g	.	2een
.	.	.	.	.	.	.	.	.	.	.	.	.	16ff	.	.	.	.	.	.	.	.
.	.	.	.	.	.	.	.	.	.	.	8b-	.	16gg	.	.	.	.	.	.	.	.
.	.	.	.	.	.	.	.	.	.	.	.	.	16ffJJ)	.	.	.	.	.	.	.	.
4G	.	.	.	.	.	.	.	.	.	.	8b-	.	(>16eeLL	.	.	.	.	.	.	.	.
.	.	.	.	.	.	.	.	.	.	.	.	.	16ff	.	.	.	.	.	.	.	.
.	.	.	.	.	.	.	.	.	.	.	8b-	.	16ee	.	.	.	.	.	.	.	.
.	.	.	.	.	.	.	.	.	.	.	.	.	16ffJJ)	.	.	.	.	.	.	.	.
4G#X	5 4	.	4G#X	-func-	4Bn	-func-	4f	-func-	4dd	-func-	8bn	.	(>16ddLL	.	.	.	.	.	4f	.	4dd
.	.	.	.	.	.	.	.	.	.	.	.	.	16ee	.	.	.	.	.	.	.	.
.	.	.	.	.	.	.	.	.	.	.	8bJ	.	16dd	.	.	.	.	.	.	.	.
.	.	.	.	.	.	.	.	.	.	.	.	.	16eeJJ)	.	.	.	.	.	.	.	.
=19	=19	=19	=19	=19	=19	=19	=19	=19	=19	=19	=19	=19	=19	=19	=19	=19	=19	=19	=19	=19	=19
4A	4 6	.	4A	-to-	4A/	-to-	4f	-to-	4dd	-to-	4f	.	4dd	.	2.r	.	2.r	.	4f	.	4dd
8AL	3#_ 5_	.	4AA	-rum,	4A/	-rum,	4e-	-rum.	4cc#X	-rum	8AL 8en	.	(>16cc#XLL	.	.	.	.	.	4e-	.	4cc#X
.	.	.	.	.	.	.	.	.	.	.	.	.	16ee-	.	.	.	.	.	.	.	.
8G	.	.	.	.	.	.	.	.	.	.	8A 8e	.	16aa	.	.	.	.	.	.	.	.
.	.	.	.	.	.	.	.	.	.	.	.	.	16gg#XJJ)	.	.	.	.	.	.	.	.
8F	.	.	4r	.	4r	.	4r	.	4r	.	8A 8e	.	(>16aaLL	.	.	.	.	.	4r	.	4r
.	x	.	.	.	.	.	.	.	.	.	.	.	16ee-	.	.	.	.	.	.	.	.
8EnJ	.	.	.	.	.	.	.	.	.	.	8AJ 8e	.	16dd	.	.	.	.	.	.	.	.
.	.	.	.	.	.	.	.	.	.	.	.	.	16cc#JJ)	.	.	.	.	.	.	.	.
=20	=20	=20	=20	=20	=20	=20	=20	=20	=20	=20	=20	=20	=20	=20	=20	=20	=20	=20	=20	=20	=20
*	*	*	*	*	*	*	*	*	*	*	*tremolo	*	*	*	*	*	*	*	*	*	*
2D	.	.	(>2D	De	(>2A/	de	(>2f#X	De	(>4dd	de	16aLL	.	16ddLL	.	2.r	.	2.r	.	2.r	.	2dd
.	.	.	.	.	.	.	.	.	.	.	16a	.	16dd	.	.	.	.	.	.	.	.
.	.	.	.	.	.	.	.	.	.	.	16a	.	16dd	.	.	.	.	.	.	.	.
.	.	.	.	.	.	.	.	.	.	.	16a	.	16ddJJ	.	.	.	.	.	.	.	.
*	*	*	*	*	*	*	*	*	*	*	*	*	*tremolo	*	*	*	*	*	*	*	*
.	.	.	.	.	.	.	.	.	4a	.	16a	.	16aLL	.	.	.	.	.	.	.	.
.	.	.	.	.	.	.	.	.	.	.	16a	.	16a	.	.	.	.	.	.	.	.
.	.	.	.	.	.	.	.	.	.	.	16a	.	16a	.	.	.	.	.	.	.	.
.	.	.	.	.	.	.	.	.	.	.	16a	.	16aJJ	.	.	.	.	.	.	.	.
4F#X	5	.	4F#X)	.	4d)	.	4a)	.	4ccn)	.	16a	.	16ccnLL	.	.	.	.	.	.	.	4ccn
.	.	.	.	.	.	.	.	.	.	.	16a	.	16cc	.	.	.	.	.	.	.	.
.	.	.	.	.	.	.	.	.	.	.	16a	.	16cc	.	.	.	.	.	.	.	.
.	.	.	.	.	.	.	.	.	.	.	16aJJ	.	16ccJJ	.	.	.	.	.	.	.	.
!	!	!	!	!	!	!	!	!	!	!	!	!	!LO:PB:g=original	!	!	!	!	!	!LO:LB:g=original	!	!
=21	=21	=21	=21	=21	=21	=21	=21	=21	=21	=21	=21	=21	=21	=21	=21	=21	=21	=21	=21	=21	=21
4G	-	.	4G	poe-	2d	poe-	2g	poe-	2b-	Poe-	16dLL	.	16b-XLL	.	2.r	.	2.r	.	4g	.	2b-
.	.	.	.	.	.	.	.	.	.	.	16d	.	16b-	.	.	.	.	.	.	.	.
.	.	.	.	.	.	.	.	.	.	.	16d	.	16b-	.	.	.	.	.	.	.	.
.	.	.	.	.	.	.	.	.	.	.	16d	.	16b-	.	.	.	.	.	.	.	.
4D	.	.	4D	-nis	.	.	.	.	.	.	16d	.	16b-	.	.	.	.	.	4d	.	.
.	.	.	.	.	.	.	.	.	.	.	16d	.	16b-	.	.	.	.	.	.	.	.
.	.	.	.	.	.	.	.	.	.	.	16d	.	16b-	.	.	.	.	.	.	.	.
.	.	.	.	.	.	.	.	.	.	.	16d	.	16b-JJ	.	.	.	.	.	.	.	.
4Fn	4| 2	.	4Fn	in-	4d	-nis	4g	-nis	4bn	-nis	16d	.	16bnLL	.	.	.	.	.	4f	.	4r
.	.	.	.	.	.	.	.	.	.	.	16d	.	16b	.	.	.	.	.	.	.	.
.	.	.	.	.	.	.	.	.	.	.	16d	.	16b	.	.	.	.	.	.	.	.
.	.	.	.	.	.	.	.	.	.	.	16dJJ	.	16bJJ	.	.	.	.	.	.	.	.
!	!	!	!	!	!	!	!LO:LB:g=original	!	!LO:LB:g=original	!	!	!	!	!	!	!	!	!	!	!	!
=22	=22	=22	=22	=22	=22	=22	=22	=22	=22	=22	=22	=22	=22	=22	=22	=22	=22	=22	=22	=22	=22
2En	6	.	2En	-fer-	2.c	in-	2.g	in-	(>4cc	in-	16gLL	.	16ccLL	.	2.r	.	2.r	.	2e-	.	2cc
.	.	.	.	.	.	.	.	.	.	.	16g	.	16cc	.	.	.	.	.	.	.	.
.	.	.	.	.	.	.	.	.	.	.	16g	.	16cc	.	.	.	.	.	.	.	.
.	.	.	.	.	.	.	.	.	.	.	16gJJ	.	16ccJJ	.	.	.	.	.	.	.	.
.	.	.	.	.	.	.	.	.	4g	.	16cLL	.	16gLL	.	.	.	.	.	.	.	.
.	.	.	.	.	.	.	.	.	.	.	16c	.	16g	.	.	.	.	.	.	.	.
.	.	.	.	.	.	.	.	.	.	.	16c	.	16g	.	.	.	.	.	.	.	.
.	.	.	.	.	.	.	.	.	.	.	16c	.	16gJJ	.	.	.	.	.	.	.	.
4E	6 5	.	4E	-ni	.	.	.	.	4b-)	.	16c	.	16b-XLL	.	.	.	.	.	4g	.	4b-
.	.	.	.	.	.	.	.	.	.	.	16c	.	16b-	.	.	.	.	.	.	.	.
.	.	.	.	.	.	.	.	.	.	.	16c	.	16b-	.	.	.	.	.	.	.	.
.	.	.	.	.	.	.	.	.	.	.	16cJJ	.	16b-JJ	.	.	.	.	.	.	.	.
!LO:LB:g=original	!	!	!	!	!LO:LB:g=original	!	!	!	!	!	!	!	!	!	!	!	!	!	!	!	!
=23	=23	=23	=23	=23	=23	=23	=23	=23	=23	=23	=23	=23	=23	=23	=23	=23	=23	=23	=23	=23	=23
4F	.	.	4F	poe-	2c	-fer-	2fn	-fer-	2a	-fer-	16cLL	.	16aLL	.	2.r	.	2.r	.	4ff	.	2a
.	.	.	.	.	.	.	.	.	.	.	16c	.	16a	.	.	.	.	.	.	.	.
.	.	.	.	.	.	.	.	.	.	.	16c	.	16a	.	.	.	.	.	.	.	.
.	.	.	.	.	.	.	.	.	.	.	16c	.	16a	.	.	.	.	.	.	.	.
4C	.	.	4C	-nis	.	.	.	.	.	.	16c	.	16a	.	.	.	.	.	4cc	.	.
.	.	.	.	.	.	.	.	.	.	.	16c	.	16a	.	.	.	.	.	.	.	.
.	.	.	.	.	.	.	.	.	.	.	16c	.	16a	.	.	.	.	.	.	.	.
.	.	.	.	.	.	.	.	.	.	.	16c	.	16a	.	.	.	.	.	.	.	.
4E-X	4 2	.	4E-X	in-	4c	-ni	4f	-ni	4a	-ni	16c	.	16a	.	.	.	.	.	4ee-X	.	4r
.	.	.	.	.	.	.	.	.	.	.	16c	.	16a	.	.	.	.	.	.	.	.
.	.	.	.	.	.	.	.	.	.	.	16c	.	16a	.	.	.	.	.	.	.	.
.	.	.	.	.	.	.	.	.	.	.	16cJJ	.	16aJJ	.	.	.	.	.	.	.	.
!	!	!	!LO:LB:g=original	!	!	!	!	!	!	!	!LO:LB:g=original	!	!	!	!	!	!LO:LB:g=original	!	!	!	!
=24	=24	=24	=24	=24	=24	=24	=24	=24	=24	=24	=24	=24	=24	=24	=24	=24	=24	=24	=24	=24	=24
4D/	6	.	(<4D/	-fer-	2.d	et	2.b-	et	(>4b-	et	16b-LL	.	16b-LL	.	4r	.	4b-	.	4dd	.	4r
.	.	.	.	.	.	.	.	.	.	.	16b-	.	16b-	.	.	.	.	.	.	.	.
.	.	.	.	.	.	.	.	.	.	.	16b-	.	16b-	.	.	.	.	.	.	.	.
.	.	.	.	.	.	.	.	.	.	.	16b-	.	16b-JJ	.	.	.	.	.	.	.	.
4BB-	.	.	4BB-)	.	.	.	.	.	4dd	.	16b-	.	16ddLL	.	4b-	.	4dd	.	4r	.	4r
.	.	.	.	.	.	.	.	.	.	.	16b-	.	16dd	.	.	.	.	.	.	.	.
.	.	.	.	.	.	.	.	.	.	.	16b-	.	16dd	.	.	.	.	.	.	.	.
.	.	.	.	.	.	.	.	.	.	.	16b-JJ	.	16ddJJ	.	.	.	.	.	.	.	.
4D/	.	.	4D/	-ni	.	.	.	.	4ff)	.	16dLL 16b-	.	16ffLL	.	4dd	.	4ff	.	4dd	.	4ff
.	.	.	.	.	.	.	.	.	.	.	16d 16b-	.	16ff	.	.	.	.	.	.	.	.
.	.	.	.	.	.	.	.	.	.	.	16d 16b-	.	16ff	.	.	.	.	.	.	.	.
.	.	.	.	.	.	.	.	.	.	.	16dJJ 16b-	.	16ffJJ	.	.	.	.	.	.	.	.
=25	=25	=25	=25	=25	=25	=25	=25	=25	=25	=25	=25	=25	=25	=25	=25	=25	=25	=25	=25	=25	=25
*	*	*	*	*	*	*	*	*	*	*	*	*	*Xtremolo	*	*	*	*	*	*	*	*
4E-	.	.	4E-	de	2e-	de	2b-	De	2gg	de	8b-L	.	(>16ggLL	.	4r	.	4r	.	2ee-	.	2gg
.	.	.	.	.	.	.	.	.	.	.	.	.	16b-	.	.	.	.	.	.	.	.
.	.	.	.	.	.	.	.	.	.	.	8b-	.	16gg	.	.	.	.	.	.	.	.
.	.	.	.	.	.	.	.	.	.	.	.	.	16b-JJ)	.	.	.	.	.	.	.	.
4e-	.	.	4e-	.	.	.	.	.	.	.	8b-	.	(>16ggLL	.	4ee-	.	4gg	.	.	.	.
.	.	.	.	.	.	.	.	.	.	.	.	.	16b-	.	.	.	.	.	.	.	.
.	.	.	.	.	.	.	.	.	.	.	8b-	.	16gg	.	.	.	.	.	.	.	.
.	.	.	.	.	.	.	.	.	.	.	.	.	16b-JJ)	.	.	.	.	.	.	.	.
4B-	.	.	8dL	pro-	4d	pro-	4b-	pro-	4ff	pro-	8b-	.	(>16ffLL	.	4dd	.	4ff	.	4dd	.	4ff
.	.	.	.	.	.	.	.	.	.	.	.	.	16b-	.	.	.	.	.	.	.	.
.	.	.	8cJ	.	.	.	.	.	.	.	8b-J	.	16ff	.	.	.	.	.	.	.	.
.	.	.	.	.	.	.	.	.	.	.	.	.	16b-JJ)	.	.	.	.	.	.	.	.
=26	=26	=26	=26	=26	=26	=26	=26	=26	=26	=26	=26	=26	=26	=26	=26	=26	=26	=26	=26	=26	=26
.	.	.	.	.	.	.	.	.	8qqff/	.	.	.	.	.	.	.	.	.	.	.	.
4F	7 5_	.	(>4F	-fun-	2c	-fun-	2a	-fun-	2ee-	-fun-	8fL 8cc	.	(>16ee-LL	.	4r	.	4r	.	4r	.	4r
.	.	.	.	.	.	.	.	.	.	.	.	.	16cc	.	.	.	.	.	.	.	.
.	.	.	.	.	.	.	.	.	.	.	8f 8cc	.	16ee-	.	.	.	.	.	.	.	.
.	.	.	.	.	.	.	.	.	.	.	.	.	16ccJJ)	.	.	.	.	.	.	.	.
4F#X	.	.	4F#X)	.	.	.	.	.	.	.	8f 8cc	.	(>16ee-LL	.	4cc	.	4ee-	.	4cc	.	4ee-
.	x	.	.	.	.	.	.	.	.	.	.	.	16cc	.	.	.	.	.	.	.	.
.	.	.	.	.	.	.	.	.	.	.	8fJ 8cc	.	16ee-	.	.	.	.	.	.	.	.
.	.	.	.	.	.	.	.	.	.	.	.	.	16ccJJ)	.	.	.	.	.	.	.	.
*	*	*	*	*	*	*	*	*	*	*	*Xtremolo	*	*	*	*	*	*	*	*	*	*
4G	5	.	4G	-do	4B-	-do	4b-	-do	4dd	-do	8fL 8b-	.	(>16ddLL	.	4b-	.	4dd	.	4b-	.	4dd
.	.	.	.	.	.	.	.	.	.	.	.	.	16b-	.	.	.	.	.	.	.	.
.	.	.	.	.	.	.	.	.	.	.	8fJ 8b-	.	16dd	.	.	.	.	.	.	.	.
.	.	.	.	.	.	.	.	.	.	.	.	.	16b-JJ)	.	.	.	.	.	.	.	.
!	!	!	!	!	!	!	!	!	!	!	!	!	!LO:LB:g=original	!	!	!	!	!	!	!	!
=27	=27	=27	=27	=27	=27	=27	=27	=27	=27	=27	=27	=27	=27	=27	=27	=27	=27	=27	=27	=27	=27
4E-	.	.	4E-	la-	(>4c	la-	(>4g	la-	(>4cc	la-	8gL	.	(>16ccLL	.	4f	.	4cc	.	4r	.	4r
.	.	.	.	.	.	.	.	.	.	.	.	.	16dd	.	.	.	.	.	.	.	.
.	.	.	.	.	.	.	.	.	.	.	8g	.	16cc	.	.	.	.	.	.	.	.
.	.	.	.	.	.	.	.	.	.	.	.	.	16ddJJ)	.	.	.	.	.	.	.	.
4Fn	4 6	.	2FT	.	4d)	.	4d	.	4b-	.	8d	.	(>16b-LL	.	4d	.	4b-	.	4dd	.	4bb-
.	.	.	.	.	.	.	.	.	.	.	.	.	16cc	.	.	.	.	.	.	.	.
.	.	.	.	.	.	.	.	.	.	.	8d	.	16b-	.	.	.	.	.	.	.	.
.	.	.	.	.	.	.	.	.	.	.	.	.	16ccJJ)	.	.	.	.	.	.	.	.
4FF	3 5	.	.	.	4e-	.	4c)	.	4a)	.	8c 8e-	.	(>16aLL	.	4f	.	4cc	.	4cc	.	4aa
.	.	.	.	.	.	.	.	.	.	.	.	.	16cc	.	.	.	.	.	.	.	.
.	.	.	.	.	.	.	.	.	.	.	8cJ 8e-	.	16a	.	.	.	.	.	.	.	.
.	.	.	.	.	.	.	.	.	.	.	.	.	16ccJJ)	.	.	.	.	.	.	.	.
=28	=28	=28	=28	=28	=28	=28	=28	=28	=28	=28	=28	=28	=28	=28	=28	=28	=28	=28	=28	=28	=28
.	.	.	.	.	.	.	.	.	.	.	.	.	8qqcc/	.	.	.	.	.	.	.	.
2.BB-	.	.	2.BB-	-cu.	2.d	-cu.	2.d	-cu.	2.b-	-cu.	2.d	.	2.d 2.b-	.	2d	.	2b-	.	2.dd	.	2.bb-
.	.	.	.	.	.	.	.	.	.	.	.	.	.	.	4r	.	4r	.	.	.	.
!	!	!	!	!	!	!	!	!	!	!	!	!	!	!	!	!	!	!	!LO:LB:g=original	!	!LO:LB:g=original
=:|!	=:|!	=:|!	=:|!	=:|!	=:|!	=:|!	=:|!	=:|!	=:|!	=:|!	=:|!	=:|!	=:|!	=:|!	=:|!	=:|!	=:|!	=:|!	=:|!	=:|!	=:|!
*-	*-	*-	*-	*-	*-	*-	*-	*-	*-	*-	*-	*-	*-	*-	*-	*-	*-	*-	*-	*-	*-
!!!system-decoration: s1,s2,s3,s4,s5,s6,s7,s8,s9,s10,s11
!!!RDF**kern: > = above
!!!RDF**kern: < = below
